assets/equilibrium-polkadot/logo.svg

<svg width="64" height="64" viewBox="0 0 64 64" fill="none" xmlns="http://www.w3.org/2000/svg">
<rect width="64" height="64" fill="white"/>
<g clip-path="url(#clip0_3874_8991)">
<path d="M49.2173 21.7654L40.3032 27.1186L49.2173 32.4944L58.1097 27.1186L49.2173 21.7654Z" fill="white"/>
<path d="M13.6044 21.7654L4.71191 27.1186L13.6044 32.4944L22.5184 27.1186L13.6044 21.7654Z" fill="white"/>
<path d="M22.5186 48.4869V59.1263L31.4111 53.7729V43.1335L22.5186 48.4869Z" fill="#1792FF"/>
<path d="M22.5181 27.1831V37.8225L13.604 32.4691V21.8298L22.5181 27.1831Z" fill="#A4D8FF"/>
<path d="M22.5181 37.8268V48.4438L13.604 43.1129V32.4735L22.5181 37.8268Z" fill="#A4D8FF"/>
<path d="M13.6044 32.472V43.1114L4.71191 37.758V27.1187L13.6044 32.472Z" fill="#A4D8FF"/>
<path d="M31.4111 43.1336V53.773L22.5186 48.4421V37.8027L31.4111 43.1336Z" fill="#A4D8FF"/>
<path d="M40.3037 27.1411V37.7805L31.4111 32.4271V21.7878L40.3037 27.1411Z" fill="#A4D8FF"/>
<path d="M22.5181 16.4346V27.074L13.604 21.7206V11.0813L22.5181 16.4346Z" fill="#A4D8FF"/>
<path d="M40.3037 48.4419V59.0812L31.4111 53.7503V43.111L40.3037 48.4419Z" fill="#A4D8FF"/>
<path d="M22.5181 48.4419V59.0812L13.604 53.7503V43.111L22.5181 48.4419Z" fill="#A4D8FF"/>
<path d="M40.3032 27.1411V37.7805L49.2173 32.4271V21.7878L40.3032 27.1411Z" fill="#1792FF"/>
<path d="M40.3032 16.4346V27.074L49.2173 21.7206V11.0813L40.3032 16.4346Z" fill="#1792FF"/>
<path d="M22.5186 27.1411V37.7805L31.4111 32.4271V21.7878L22.5186 27.1411Z" fill="#1792FF"/>
<path d="M40.3032 37.7805V48.4197L49.2173 43.0665V32.4271L40.3032 37.7805Z" fill="#1792FF"/>
<path d="M49.2173 32.472V43.1114L58.1098 37.758V27.1187L49.2173 32.472Z" fill="#1792FF"/>
<path d="M31.4111 43.1113V53.7507L40.3037 48.4198V37.7804L31.4111 43.1113Z" fill="#1792FF"/>
<path d="M40.3032 48.4197V59.0591L49.2173 53.7058V43.0664L40.3032 48.4197Z" fill="#1792FF"/>
<path d="M22.5181 16.4589L13.604 21.8121L22.5181 27.1878L31.4105 21.8121L22.5181 16.4589Z" fill="white"/>
<path d="M31.4111 11.0813L22.5186 16.457L31.4111 21.8102L40.3035 16.457L31.4111 11.0813Z" fill="white"/>
<path d="M31.4111 32.4271L22.5186 37.7805L31.4111 43.1336L40.3035 37.7805L31.4111 32.4271Z" fill="white"/>
<path d="M40.3037 5.72815L31.4111 11.0814L40.3037 16.4571L49.2176 11.0814L40.3037 5.72815Z" fill="white"/>
<path d="M22.5181 5.72815L13.604 11.0814L22.5181 16.4571L31.4105 11.0814L22.5181 5.72815Z" fill="white"/>
<path d="M40.3037 16.3898L31.4111 21.7654L40.3037 27.1186L49.2176 21.7654L40.3037 16.3898Z" fill="white"/>
<path d="M13.6044 11.0814V21.7655L4.71191 27.1189V37.7581L13.6044 43.1114V53.7508L22.5184 59.0815L31.4109 53.7508L40.3033 59.0815L49.2174 53.7508V43.1114L58.11 37.7581V27.1189L49.2174 21.7655V11.0814L40.3033 5.72815L31.4109 11.0814L22.5184 5.72815L13.6044 11.0814Z" stroke="#001423" stroke-width="1.42395" stroke-miterlimit="10" stroke-linejoin="round"/>
<path d="M4.71191 27.1187L13.6044 32.5391" stroke="white" stroke-width="1.42395" stroke-miterlimit="10" stroke-linecap="round" stroke-linejoin="round"/>
<path d="M22.5186 48.4872V59.0817" stroke="white" stroke-width="1.42395" stroke-miterlimit="10" stroke-linecap="round" stroke-linejoin="round"/>
<path d="M22.5186 37.8274V48.489" stroke="#001423" stroke-width="1.42395" stroke-miterlimit="10" stroke-linejoin="round"/>
<path d="M13.604 21.7654V43.1113" stroke="#001423" stroke-width="1.42395" stroke-miterlimit="10" stroke-linejoin="round"/>
<path d="M40.3032 48.4422V37.7804" stroke="#001423" stroke-width="1.42395" stroke-miterlimit="10" stroke-linejoin="round"/>
<path d="M40.3032 59.0816V48.4424" stroke="white" stroke-width="1.42395" stroke-miterlimit="10" stroke-linecap="round" stroke-linejoin="round"/>
<path d="M58.1098 27.0737L49.2173 32.4942" stroke="white" stroke-width="1.42395" stroke-miterlimit="10" stroke-linecap="round" stroke-linejoin="round"/>
<path d="M49.2173 11.0813L40.3032 16.5018" stroke="white" stroke-width="1.42395" stroke-miterlimit="10" stroke-linecap="round" stroke-linejoin="round"/>
<path d="M13.604 11.0813L22.5181 16.5018" stroke="white" stroke-width="1.42395" stroke-miterlimit="10" stroke-linecap="round" stroke-linejoin="round"/>
<path d="M49.2173 43.3561V22.0326" stroke="#001423" stroke-width="1.42395" stroke-miterlimit="10" stroke-linejoin="round"/>
<path d="M13.626 32.4735L22.5185 37.8044" stroke="#001423" stroke-width="1.42395" stroke-miterlimit="10" stroke-linejoin="round"/>
<path d="M13.604 43.111L31.4105 53.8399" stroke="#001423" stroke-width="1.42395" stroke-miterlimit="10" stroke-linejoin="round"/>
<path d="M49.0454 43.111L31.2603 53.8399" stroke="#001423" stroke-width="1.42395" stroke-miterlimit="10" stroke-linejoin="round"/>
<path d="M49.2173 32.4966L40.3032 37.7826" stroke="#001423" stroke-width="1.42395" stroke-miterlimit="10" stroke-linejoin="round"/>
<path d="M40.605 16.5225L31.4111 21.7861" stroke="#001423" stroke-width="1.42395" stroke-miterlimit="10" stroke-linejoin="round"/>
<path d="M31.4111 11.0813L49.7989 22.1238" stroke="#001423" stroke-width="1.42395" stroke-miterlimit="10" stroke-linejoin="round"/>
<path d="M40.1529 37.6684L31.4111 32.3375V21.7878L22.5186 16.4346" stroke="#001423" stroke-width="1.42395" stroke-miterlimit="10" stroke-linejoin="round"/>
<path d="M31.4105 11.059L13.604 21.7655" stroke="#001423" stroke-width="1.42395" stroke-miterlimit="10" stroke-linejoin="round"/>
<path d="M31.4101 32.2928L22.4531 37.6909" stroke="#001423" stroke-width="1.42395" stroke-miterlimit="10" stroke-linejoin="round"/>
<path d="M13.604 21.7654L22.5181 27.1859V37.8028L31.4105 43.1336V53.7505" stroke="white" stroke-width="1.42395" stroke-miterlimit="10" stroke-linecap="round" stroke-linejoin="round"/>
<path d="M49.2176 21.7654L40.3037 27.1859V37.8028L31.4111 43.1336" stroke="white" stroke-width="1.42395" stroke-miterlimit="10" stroke-linecap="round" stroke-linejoin="round"/>
<path d="M22.5186 27.1882L31.4111 21.8125L40.3035 27.1882" stroke="white" stroke-width="1.42395" stroke-miterlimit="10" stroke-linecap="round" stroke-linejoin="round"/>
</g>
<defs>
<clipPath id="clip0_3874_8991">
<rect width="55" height="54.822" fill="white" transform="translate(4 5.01624)"/>
</clipPath>
</defs>
</svg>

<svg viewBox="0 0 64 64" xmlns="http://www.w3.org/2000/svg">
    <path fill="#fff" fill-rule="evenodd" d="M64 32C64 14.327 49.673 0 32 0 14.327 0 0 14.327 0 32c0 17.673 14.327 32 32 32 17.673 0 32-14.327 32-32Z"/>
    <path fill="#fff" d="m49.217 21.765-8.914 5.354 8.914 5.375 8.893-5.375-8.893-5.354Z"/>
    <path fill="#fff" d="M13.604 21.765 4.712 27.12l8.892 5.375 8.914-5.375-8.914-5.354Z"/>
    <path fill="#1792ff" d="M22.519 48.487v10.64l8.892-5.354v-10.64l-8.892 5.354Z"/>
    <path fill="#a4d8ff" d="M22.518 27.183v10.64l-8.914-5.354V21.83l8.914 5.354Z"/>
    <path fill="#a4d8ff" d="M22.518 37.827v10.617l-8.914-5.331v-10.64l8.914 5.354Z"/>
    <path fill="#a4d8ff" d="M13.604 32.472v10.64l-8.892-5.354v-10.64l8.892 5.354Z"/>
    <path fill="#a4d8ff" d="M31.411 43.134v10.639l-8.892-5.33v-10.64l8.892 5.33Z"/>
    <path fill="#a4d8ff" d="M40.304 27.141v10.64l-8.893-5.354v-10.64l8.893 5.354Z"/>
    <path fill="#a4d8ff" d="M22.518 16.435v10.639l-8.914-5.353V11.08l8.914 5.354Z"/>
    <path fill="#a4d8ff" d="M40.304 48.442v10.64L31.41 53.75V43.111l8.893 5.33Z"/>
    <path fill="#a4d8ff" d="M22.518 48.442v10.64l-8.914-5.332V43.111l8.914 5.33Z"/>
    <path fill="#1792ff" d="M40.303 27.141v10.64l8.914-5.354v-10.64l-8.914 5.354Z"/>
    <path fill="#1792ff" d="M40.303 16.435v10.639l8.914-5.353V11.08l-8.914 5.354Z"/>
    <path fill="#1792ff" d="M22.519 27.141v10.64l8.892-5.354v-10.64l-8.892 5.354Z"/>
    <path fill="#1792ff" d="M40.303 37.78v10.64l8.914-5.353v-10.64l-8.914 5.353Z"/>
    <path fill="#1792ff" d="M49.217 32.472v10.64l8.893-5.354v-10.64l-8.893 5.354Z"/>
    <path fill="#1792ff" d="M31.411 43.111v10.64l8.893-5.331V37.78l-8.893 5.331Z"/>
    <path fill="#1792ff" d="M40.303 48.42v10.64l8.914-5.354v-10.64l-8.914 5.354Z"/>
    <path fill="#fff" d="m22.518 16.459-8.914 5.353 8.914 5.376 8.892-5.376-8.892-5.353Z"/>
    <path fill="#fff" d="m31.411 11.081-8.892 5.376 8.892 5.353 8.893-5.353-8.893-5.376Z"/>
    <path fill="#fff" d="M31.411 32.427 22.52 37.78l8.892 5.354 8.893-5.354-8.893-5.353Z"/>
    <path fill="#fff" d="m40.304 5.728-8.893 5.353 8.893 5.376 8.914-5.376-8.914-5.353Z"/>
    <path fill="#fff" d="m22.518 5.728-8.914 5.353 8.914 5.376 8.892-5.376-8.892-5.353Z"/>
    <path fill="#fff" d="m40.304 16.39-8.893 5.375 8.893 5.354 8.914-5.354-8.914-5.375Z"/>
    <path fill="none" stroke="#001423" stroke-width="1.424" stroke-linecap="round" stroke-linejoin="round" d="M13.604 11.081v10.684L4.712 27.12v10.64l8.892 5.352v10.64l8.914 5.33 8.893-5.33 8.892 5.33 8.914-5.33V43.11l8.893-5.353v-10.64l-8.893-5.353V11.081l-8.914-5.353-8.892 5.353-8.893-5.353-8.914 5.353Z"/>
    <path fill="none" stroke="#fff" stroke-width="1.424" stroke-linecap="round" stroke-linejoin="round" d="m4.712 27.119 8.892 5.42"/>
    <path fill="none" stroke="#fff" stroke-width="1.424" stroke-linecap="round" stroke-linejoin="round" d="M22.519 48.487v10.595"/>
    <path fill="none" stroke="#001423" stroke-width="1.424" stroke-linecap="round" stroke-linejoin="round" d="M22.519 37.827V48.49"/>
    <path fill="none" stroke="#001423" stroke-width="1.424" stroke-linecap="round" stroke-linejoin="round" d="M13.604 21.765v21.346"/>
    <path fill="none" stroke="#001423" stroke-width="1.424" stroke-linecap="round" stroke-linejoin="round" d="M40.303 48.442V37.78"/>
    <path fill="none" stroke="#fff" stroke-width="1.424" stroke-linecap="round" stroke-linejoin="round" d="M40.303 59.082v-10.64"/>
    <path fill="none" stroke="#fff" stroke-width="1.424" stroke-linecap="round" stroke-linejoin="round" d="m58.11 27.074-8.893 5.42"/>
    <path fill="none" stroke="#fff" stroke-width="1.424" stroke-linecap="round" stroke-linejoin="round" d="m49.217 11.081-8.914 5.42"/>
    <path fill="none" stroke="#fff" stroke-width="1.424" stroke-linecap="round" stroke-linejoin="round" d="m13.604 11.081 8.914 5.42"/>
    <path fill="none" stroke="#001423" stroke-width="1.424" stroke-linecap="round" stroke-linejoin="round" d="M49.217 43.356V22.033"/>
    <path fill="none" stroke="#001423" stroke-width="1.424" stroke-linecap="round" stroke-linejoin="round" d="m13.626 32.473 8.892 5.331"/>
    <path fill="none" stroke="#001423" stroke-width="1.424" stroke-linecap="round" stroke-linejoin="round" d="M13.604 43.111 31.41 53.84"/>
    <path fill="none" stroke="#001423" stroke-width="1.424" stroke-linecap="round" stroke-linejoin="round" d="M49.045 43.111 31.26 53.84"/>
    <path fill="none" stroke="#001423" stroke-width="1.424" stroke-linecap="round" stroke-linejoin="round" d="m49.217 32.497-8.914 5.286"/>
    <path fill="none" stroke="#001423" stroke-width="1.424" stroke-linecap="round" stroke-linejoin="round" d="m40.605 16.522-9.194 5.264"/>
    <path fill="none" stroke="#001423" stroke-width="1.424" stroke-linecap="round" stroke-linejoin="round" d="M31.411 11.081 49.8 22.124"/>
    <path fill="none" stroke="#001423" stroke-width="1.424" stroke-linecap="round" stroke-linejoin="round" d="m40.153 37.668-8.742-5.33v-10.55l-8.892-5.353"/>
    <path fill="none" stroke="#001423" stroke-width="1.424" stroke-linecap="round" stroke-linejoin="round" d="M31.41 11.059 13.604 21.765"/>
    <path fill="none" stroke="#001423" stroke-width="1.424" stroke-linecap="round" stroke-linejoin="round" d="m31.41 32.293-8.957 5.398"/>
    <path fill="none" stroke="#fff" stroke-width="1.424" stroke-linecap="round" stroke-linejoin="round" d="m13.604 21.765 8.914 5.42v10.618l8.892 5.33V53.75"/>
    <path fill="none" stroke="#fff" stroke-width="1.424" stroke-linecap="round" stroke-linejoin="round" d="m49.218 21.765-8.914 5.42v10.618l-8.893 5.33"/>
    <path fill="none" stroke="#fff" stroke-width="1.424" stroke-linecap="round" stroke-linejoin="round" d="m22.519 27.188 8.892-5.375 8.893 5.375"/>
</svg>
